X:114
T:Scots Hall. THO1.114, The
T:Gallop & Shite,aka. THO1.114
T:Cow's Corrant,aka. THO1.114
M:6/8
L:1/8
Z:vmp. Peter Dunk 2012.from a transcription by Fynn Titford-Mock 2006
B:Thompson's Compleat Collection of 200 Favourite Country Dances Vol.I,1758
Q:3/8=100
K:Hp
g|fdB BdB|fdB TB2 g|fdB BdB|fdB TA2 g|\
fdB BdB|fdB TB2 g|gbg faf|ecA TA2:|
|:g|(f/g/af) def|gdB TB2 g|(f/g/af) def|gdB TA2 g|\
(f/g/af) def|gbg faf|geg fdf|ecA TA2:|

